src/assets/img/globalping/slack-icon.svg

<svg width="65" height="53" viewBox="0 0 65 53" fill="none" xmlns="http://www.w3.org/2000/svg">
<path d="M57.5364 10.2839L1.43555 14.2839V42.9695C1.43555 47.6118 5.37393 51.2794 10.0045 50.9493L50.1054 48.0901C54.2923 47.7915 57.5364 44.3078 57.5364 40.1103V10.2839Z" fill="white" stroke="#E7E7EE" stroke-width="2" stroke-miterlimit="10" stroke-linecap="round"/>
<path d="M49.708 1.99371L8.86659 4.90571C4.67972 5.20424 1.43555 8.68795 1.43555 12.8855V13.2838L57.5364 9.28384C57.5364 5.0427 53.9384 1.69209 49.708 1.99371Z" fill="#17233A" stroke="#E7E7EE" stroke-width="2" stroke-miterlimit="10" stroke-linecap="round"/>
<path d="M51.708 1.99371L10.8666 4.90571C6.67972 5.20424 3.43555 8.68795 3.43555 12.8855V13.2838L59.5364 9.28384C59.5364 5.0427 55.9384 1.69209 51.708 1.99371Z" fill="#E7E7EE"/>
<path d="M51.708 1.99371L10.8666 4.90571C6.67972 5.20424 3.43555 8.68795 3.43555 12.8855V13.2838L59.5364 9.28384C59.5364 5.0427 55.9384 1.69209 51.708 1.99371Z" fill="url(#paint0_radial_4018_9769)"/>
<path d="M51.708 1.99371L10.8666 4.90571C6.67972 5.20424 3.43555 8.68795 3.43555 12.8855V13.2838L59.5364 9.28384C59.5364 5.0427 55.9384 1.69209 51.708 1.99371Z" stroke="#E7E7EE" stroke-width="2" stroke-miterlimit="10" stroke-linecap="round"/>
<path d="M8.98164 10.9189C9.89809 10.9189 10.641 10.1759 10.641 9.25947C10.641 8.34303 9.89809 7.6001 8.98164 7.6001C8.06519 7.6001 7.32227 8.34303 7.32227 9.25947C7.32227 10.1759 8.06519 10.9189 8.98164 10.9189Z" fill="#B8B8CC"/>
<path d="M13.5983 10.5187C14.5147 10.5187 15.2577 9.77578 15.2577 8.85933C15.2577 7.94288 14.5147 7.19995 13.5983 7.19995C12.6818 7.19995 11.9389 7.94288 11.9389 8.85933C11.9389 9.77578 12.6818 10.5187 13.5983 10.5187Z" fill="#B8B8CC"/>
<path d="M18.2149 10.1715C19.1314 10.1715 19.8743 9.42861 19.8743 8.51216C19.8743 7.59571 19.1314 6.85278 18.2149 6.85278C17.2985 6.85278 16.5555 7.59571 16.5555 8.51216C16.5555 9.42861 17.2985 10.1715 18.2149 10.1715Z" fill="#B8B8CC"/>
<path d="M59.5364 9.28394L3.43555 13.2839V43.9695C3.43555 48.6118 7.37393 52.2794 12.0045 51.9493L52.1054 49.0901C56.2923 48.7915 59.5364 45.3078 59.5364 41.1103V9.28394Z" fill="white" stroke="#E7E7EE" stroke-width="2" stroke-miterlimit="10" stroke-linecap="round"/>
<g filter="url(#filter0_d_4018_9769)">
<path d="M31.8469 43.5032L31.8429 43.5008C31.2206 43.1302 30.7301 42.574 30.444 41.9092L30.4425 41.9059C30.1582 41.2387 30.0841 40.5017 30.2305 39.7916C30.3753 39.0788 30.7212 38.4227 31.2261 37.8979C31.2266 37.8975 31.227 37.8971 31.2274 37.8966L35.9338 32.9736C37.0939 31.7601 37.0324 29.8308 35.7973 28.6936L31.1086 24.3764L31.103 24.3713L31.103 24.3713C30.7517 24.0428 30.4718 23.6458 30.2818 23.2044C30.0916 22.763 29.9956 22.2871 30.0001 21.8067L30.0001 21.8022L30.0001 21.8022C30.0134 20.832 30.3959 19.9047 31.0677 19.203C31.7391 18.5017 32.6503 18.0766 33.62 18.0073L33.6229 18.0071L33.6229 18.0071C34.1031 17.9742 34.5852 18.0386 35.0396 18.1967C35.4941 18.3547 35.9119 18.6032 36.2667 18.9276L36.2707 18.9313L36.2707 18.9313L45.8437 27.7785L45.8477 27.7823C46.1988 28.1104 46.4786 28.507 46.6689 28.9479C46.8592 29.3889 46.9555 29.8643 46.9516 30.3445M31.8469 43.5032L46.9516 30.3445M31.8469 43.5032C32.4699 43.8703 33.1902 44.0406 33.912 43.9929L31.8469 43.5032ZM46.9516 30.3445C46.9442 31.3167 46.562 32.2471 45.8867 32.9479M46.9516 30.3445C46.9516 30.3442 46.9516 30.3439 46.9516 30.3436L45.8867 32.9479M45.8867 32.9479C45.8859 32.9487 45.8852 32.9494 45.8845 32.9502L36.4985 42.7933L36.4962 42.7957C36.1578 43.1481 35.7564 43.4345 35.3129 43.6407L45.8867 32.9479Z" fill="#17D4A7" stroke="#69E7C8" stroke-width="2" stroke-linecap="round" stroke-linejoin="round"/>
<path d="M60.3791 42.3726C60.3947 42.3716 60.4102 42.3703 60.4256 42.3687C61.3794 42.2896 62.2734 41.8662 62.9344 41.1747C63.6052 40.473 63.9869 39.5463 63.9999 38.5767L63.9999 38.5762C64.0061 38.0938 63.9102 37.6158 63.7187 37.1728C63.5273 36.7299 63.2448 36.3322 62.8901 36.0046C62.5354 35.6771 62.1163 35.4267 61.6598 35.2686C61.2058 35.1113 60.7241 35.0485 60.2449 35.0837L47.5389 35.8611L47.5389 35.8611L47.5276 35.8619C46.5586 35.9321 45.6486 36.3578 44.9782 37.059C44.3074 37.7607 43.9257 38.6875 43.9127 39.657L43.9127 39.6575C43.9065 40.14 44.0024 40.6179 44.1938 41.0609C44.3853 41.5038 44.6678 41.9015 45.0225 42.2291C45.3772 42.5566 45.7963 42.807 46.2528 42.9651C46.7068 43.1224 47.1885 43.1852 47.6677 43.15L60.3791 42.3726Z" fill="#17D4A7" stroke="#69E7C8" stroke-width="2" stroke-linecap="round" stroke-linejoin="round"/>
</g>
<defs>
<filter id="filter0_d_4018_9769" x="15.9999" y="13.9988" width="49.0003" height="38.002" filterUnits="userSpaceOnUse" color-interpolation-filters="sRGB">
<feFlood flood-opacity="0" result="BackgroundImageFix"/>
<feColorMatrix in="SourceAlpha" type="matrix" values="0 0 0 0 0 0 0 0 0 0 0 0 0 0 0 0 0 0 127 0" result="hardAlpha"/>
<feOffset dx="-8" dy="2"/>
<feGaussianBlur stdDeviation="2.5"/>
<feComposite in2="hardAlpha" operator="out"/>
<feColorMatrix type="matrix" values="0 0 0 0 0.0919117 0 0 0 0 0.830339 0 0 0 0 0.653116 0 0 0 0.25 0"/>
<feBlend mode="normal" in2="BackgroundImageFix" result="effect1_dropShadow_4018_9769"/>
<feBlend mode="normal" in="SourceGraphic" in2="effect1_dropShadow_4018_9769" result="shape"/>
</filter>
<radialGradient id="paint0_radial_4018_9769" cx="0" cy="0" r="1" gradientUnits="userSpaceOnUse" gradientTransform="translate(52.5 1.50001) rotate(157.932) scale(19.9625 94.521)">
<stop stop-color="white" stop-opacity="0.5"/>
<stop offset="1" stop-color="white" stop-opacity="0"/>
</radialGradient>
</defs>
</svg>

<svg xmlns="http://www.w3.org/2000/svg" width="65" height="53" fill="none">
  <path fill="#fff" stroke="#E7E7EE" stroke-linecap="round" stroke-miterlimit="10" stroke-width="2" d="m57.536 10.284-56.1 4v28.685c0 4.643 3.938 8.31 8.569 7.98l40.1-2.859a8 8 0 0 0 7.431-7.98V10.284Z"/>
  <path fill="#17233A" stroke="#E7E7EE" stroke-linecap="round" stroke-miterlimit="10" stroke-width="2" d="M49.708 1.994 8.867 4.906a8 8 0 0 0-7.431 7.98v.398l56.1-4a7.309 7.309 0 0 0-7.828-7.29Z"/>
  <path fill="#E7E7EE" d="M51.708 1.994 10.867 4.906a8 8 0 0 0-7.431 7.98v.398l56.1-4a7.309 7.309 0 0 0-7.828-7.29Z"/>
  <path fill="url(#a)" d="M51.708 1.994 10.867 4.906a8 8 0 0 0-7.431 7.98v.398l56.1-4a7.309 7.309 0 0 0-7.828-7.29Z"/>
  <path stroke="#E7E7EE" stroke-linecap="round" stroke-miterlimit="10" stroke-width="2" d="M51.708 1.994 10.867 4.906a8 8 0 0 0-7.431 7.98v.398l56.1-4a7.309 7.309 0 0 0-7.828-7.29Z"/>
  <path fill="#B8B8CC" d="M8.982 10.919a1.66 1.66 0 1 0 0-3.319 1.66 1.66 0 0 0 0 3.319Zm4.616-.4a1.66 1.66 0 1 0 0-3.32 1.66 1.66 0 0 0 0 3.32Zm4.617-.348a1.66 1.66 0 1 0 0-3.318 1.66 1.66 0 0 0 0 3.319Z"/>
  <path fill="#fff" stroke="#E7E7EE" stroke-linecap="round" stroke-miterlimit="10" stroke-width="2" d="m59.536 9.284-56.1 4v30.685c0 4.643 3.938 8.31 8.569 7.98l40.1-2.859a8 8 0 0 0 7.431-7.98V9.284Z"/>
  <g fill="#17D4A7" stroke="#69E7C8" stroke-linecap="round" stroke-linejoin="round" stroke-width="2" filter="url(#b)">
    <path d="m31.847 43.503-.004-.002a3.434 3.434 0 0 1-1.399-1.592l-.002-.003a3.558 3.558 0 0 1-.212-2.114 3.832 3.832 0 0 1 .997-1.895l4.707-4.923a3 3 0 0 0-.137-4.28l-4.688-4.318-.006-.005h0a3.484 3.484 0 0 1-.821-1.167A3.45 3.45 0 0 1 30 21.807v-.005h0a3.834 3.834 0 0 1 1.068-2.599 3.92 3.92 0 0 1 2.552-1.196h.003a3.57 3.57 0 0 1 2.644.92l.004.004h0l9.573 8.848.004.003a3.495 3.495 0 0 1 1.104 2.562m-15.105 13.16 15.105-13.16m-15.105 13.16a3.601 3.601 0 0 0 2.065.489l-2.065-.49Zm15.105-13.16a3.793 3.793 0 0 1-1.065 2.604m1.065-2.604s0 0 0 0l-1.065 2.604m0 0-.002.002-9.386 9.843-.003.003c-.338.352-.74.639-1.183.845l10.574-10.693Zm14.493 9.425.046-.004a3.918 3.918 0 0 0 2.508-1.194A3.834 3.834 0 0 0 64 38.577h0a3.437 3.437 0 0 0-.281-1.404 3.458 3.458 0 0 0-.829-1.168 3.532 3.532 0 0 0-2.645-.92l-12.706.776h0-.011a3.919 3.919 0 0 0-2.55 1.198 3.834 3.834 0 0 0-1.065 2.598h0a3.426 3.426 0 0 0 1.11 2.572 3.532 3.532 0 0 0 2.645.92l12.711-.776Z"/>
  </g>
  <defs>
    <radialGradient id="a" cx="0" cy="0" r="1" gradientTransform="matrix(-18.50002 7.50005 -35.51218 -87.59626 52.5 1.5)" gradientUnits="userSpaceOnUse">
      <stop stop-color="#fff" stop-opacity=".5"/>
      <stop offset="1" stop-color="#fff" stop-opacity="0"/>
    </radialGradient>
    <filter id="b" width="49" height="38.002" x="16" y="13.999" color-interpolation-filters="sRGB" filterUnits="userSpaceOnUse">
      <feFlood flood-opacity="0" result="BackgroundImageFix"/>
      <feColorMatrix in="SourceAlpha" result="hardAlpha" values="0 0 0 0 0 0 0 0 0 0 0 0 0 0 0 0 0 0 127 0"/>
      <feOffset dx="-8" dy="2"/>
      <feGaussianBlur stdDeviation="2.5"/>
      <feComposite in2="hardAlpha" operator="out"/>
      <feColorMatrix values="0 0 0 0 0.0919117 0 0 0 0 0.830339 0 0 0 0 0.653116 0 0 0 0.25 0"/>
      <feBlend in2="BackgroundImageFix" result="effect1_dropShadow_4018_9769"/>
      <feBlend in="SourceGraphic" in2="effect1_dropShadow_4018_9769" result="shape"/>
    </filter>
  </defs>
</svg>
